!!!COM: (Joseph) Maurice Ravel
!!!OTL: [T286_Rav-w28p5h2m1-8]
**kern	**dynam	**kern	**dynam
*grp:A	*grp:A	*grp:B	*grp:B
*part2	*part2	*part1	*part1
*staff2	*staff2	*staff1	*staff1
*I"Violoncello	*I"Violoncello	*I"Violin	*I"Violin
*I'Vc.	*	*I'Vln.	*
*clefF4	*	*clefG2	*
*k[]	*	*k[]	*
*C:	*	*C:	*
*M2/8	*	*M3/8	*
!!LO:REH:t=2
=49	=49	=49	=49
*Xtuplet	*	*	*
!	!	!LO:TX:t=[[quarter-dot]=160]	!
!LO:TX:a:t=[pizz.]	!LO:DY:ed=brack	!LO:TX:a:t=arco	!
16%3AL)	p	8a^L	pp
.	.	(8e	.
16%3FJ	.	.	.
.	.	8aJ)	.
=50	=50	=50	=50
16%3c#XL	.	8g^L	.
.	.	(8e	.
16%3FJ	.	.	.
.	.	8gJ)	.
=51	=51	=51	=51
16%3r	.	8a^L	.
.	.	(8e	.
16%3BB-X	.	.	.
.	.	8aJ)	.
=52	=52	=52	=52
16%3F#XL 16%3A	.	8d^L	.
.	.	(8A	.
16%3BB-XJ	.	.	.
.	.	8dJ)	.
=53	=53	=53	=53
16%3r	.	8a^L	.
.	.	(8e	.
16%3Fn	.	.	.
.	.	8aJ)	.
=54	=54	=54	=54
16%3c#XL	.	8g^L	.
.	.	(8e	.
16%3FJ	.	.	.
.	.	8gJ)	.
=55	=55	=55	=55
16%3r	.	8a^L	.
.	.	(8e	.
16%3BB-X	.	.	.
.	.	8gJ)	.
=56	=56	=56	=56
16%3F#XL 16%3A	.	8d^L	.
.	.	(8A	.
16%3BB-XJ	.	.	.
.	.	8dJ)	.
=	=	=	=
*-	*-	*-	*-
!!!system-decoration: [(s1,s2)]
!!!EED: Daniel Wright
!!!EEV: 2021/07/07
!!!EED2: Gabriella Vici
!!!EEV2: 2022/02/08
